icons/gear-filled.svg

<svg width="24" height="24" viewBox="0 0 24 24" fill="none" xmlns="http://www.w3.org/2000/svg">
<path fill-rule="evenodd" clip-rule="evenodd" d="M6.37 18.644C5.91362 18.8943 5.37766 18.9568 4.87593 18.8182C4.37421 18.6797 3.94627 18.351 3.683 17.902L2.658 16.154C2.52515 15.9274 2.43824 15.6769 2.40222 15.4167C2.36621 15.1565 2.3818 14.8918 2.4481 14.6376C2.5144 14.3835 2.63012 14.1448 2.78864 13.9354C2.94717 13.726 3.14539 13.5498 3.372 13.417L3.395 13.403L4.072 13.019C3.97687 12.344 3.97115 11.6595 4.055 10.983L3.385 10.599C3.15715 10.4683 2.95727 10.2941 2.79677 10.0862C2.63627 9.87826 2.51829 9.64077 2.44957 9.38727C2.38086 9.13376 2.36275 8.8692 2.39628 8.6087C2.42981 8.34819 2.51433 8.09684 2.645 7.869L2.654 7.855L3.676 6.107C3.94146 5.65312 4.37498 5.32204 4.88274 5.18541C5.39049 5.04879 5.93162 5.11762 6.389 5.377L7.036 5.743C7.63345 5.24452 8.30657 4.8445 9.03 4.558L9.025 4.023C9.02196 3.76035 9.07069 3.49968 9.1684 3.25586C9.26611 3.01205 9.4109 2.78987 9.59448 2.60201C9.77807 2.41416 9.99686 2.2643 10.2384 2.16101C10.4799 2.05771 10.7394 2.003 11.002 2H13.009C13.5394 2 14.0481 2.21071 14.4232 2.58579C14.7983 2.96086 15.009 3.46957 15.009 4V4.572C15.727 4.879 16.38 5.272 16.965 5.75L17.587 5.39C18.0428 5.1261 18.5843 5.05264 19.0939 5.18557C19.6035 5.3185 20.0402 5.64709 20.309 6.1L21.346 7.847C21.4801 8.07281 21.5685 8.32283 21.606 8.58278C21.6436 8.84274 21.6295 9.10754 21.5647 9.36206C21.4999 9.61659 21.3856 9.85586 21.2283 10.0662C21.071 10.2766 20.8738 10.4539 20.648 10.588L20.623 10.603L19.941 10.993C20.024 11.673 20.024 12.348 19.943 13.019L20.613 13.4C20.8413 13.5299 21.0418 13.7035 21.2031 13.9109C21.3643 14.1184 21.4831 14.3555 21.5526 14.6088C21.6222 14.8622 21.6412 15.1267 21.6084 15.3874C21.5757 15.648 21.492 15.8997 21.362 16.128L21.342 16.161L20.302 17.909C20.0354 18.3572 19.6041 18.6836 19.1003 18.8185C18.5965 18.9534 18.0599 18.8861 17.605 18.631L16.954 18.266C16.308 18.779 15.661 19.167 15.009 19.427V20.005C15.009 20.5354 14.7983 21.0441 14.4232 21.4192C14.0481 21.7943 13.5394 22.005 13.009 22.005H13.006L10.994 22.002C10.4644 22.0012 9.9568 21.7904 9.58243 21.4159C9.20806 21.0413 8.99753 20.5336 8.997 20.004C8.997 19.811 8.997 19.61 9 19.403C8.29459 19.1277 7.63481 18.7474 7.043 18.275L6.371 18.644H6.37ZM12.01 8C9.804 8 8.01 9.794 8.01 12C8.01 14.206 9.804 16 12.01 16C14.216 16 16.01 14.206 16.01 12C16.01 9.794 14.216 8 12.01 8ZM12.01 14C10.907 14 10.01 13.103 10.01 12C10.01 10.897 10.907 10 12.01 10C13.113 10 14.01 10.897 14.01 12C14.01 13.103 13.113 14 12.01 14Z" fill="#3A3A47"/>
</svg>

<svg xmlns="http://www.w3.org/2000/svg" width="24" height="24" viewBox="0 0 24 24">
    <path fill="#3A3A47" fill-rule="evenodd" d="M13.009 2a2 2 0 0 1 2 2v.572c.718.307 1.371.7 1.956 1.178l.622-.36a2 2 0 0 1 2.722.71l1.037 1.747a2 2 0 0 1-.698 2.741l-.025.015-.682.39c.083.68.083 1.355.002 2.026l.67.381a2 2 0 0 1 .749 2.728l-.02.033-1.04 1.748a2 2 0 0 1-2.697.722l-.651-.365c-.646.513-1.293.901-1.945 1.161v.578a2 2 0 0 1-2 2h-.003l-2.012-.003a2 2 0 0 1-1.997-1.998c0-.193 0-.394.003-.601a7.519 7.519 0 0 1-1.957-1.128l-.672.369a2 2 0 0 1-2.688-.742l-1.025-1.748a2 2 0 0 1 .714-2.737l.023-.014.677-.384a7.754 7.754 0 0 1-.017-2.036l-.67-.384a2 2 0 0 1-.74-2.73l.009-.014 1.022-1.748a2 2 0 0 1 2.713-.73l.647.366A7.319 7.319 0 0 1 9.03 4.558l-.005-.535A2 2 0 0 1 11.002 2h2.007zm-1 6c-2.206 0-4 1.794-4 4s1.794 4 4 4 4-1.794 4-4-1.794-4-4-4zm0 2c1.103 0 2 .897 2 2s-.897 2-2 2-2-.897-2-2 .897-2 2-2z"/>
</svg>
